1.Normal/chrome/Icons/addons.svg

<svg xmlns="http://www.w3.org/2000/svg" width="16" height="16" viewBox="0 0 16 16">
   <path
   style="fill:context-fill;fill-opacity:context-fill-opacity"
   d="M 8 0 C 7.654534 0 7.3088581 0.089258883 7 0.26757812 C 6.38199 0.62438636 6 1.2862704 6 2 L 3.5 2 C 2.6774952 2 2 2.6774952 2 3.5 L 2 6 C 1.2862706 6 0.62438631 6.3819895 0.26757812 7 C -0.089286232 7.6181081 -0.089286361 8.3818921 0.26757812 9 C 0.62438631 9.6180105 1.2862706 10 2 10 L 2 12.5 C 2 13.322505 2.6774952 14 3.5 14 L 6 14 C 6 14.713729 6.3819897 15.375614 7 15.732422 C 7.6181079 16.089286 8.3818921 16.089286 9 15.732422 C 9.6180106 15.375614 10 14.713729 10 14 L 12.5 14 C 13.322505 14 14 13.322505 14 12.5 L 14 9.5 A 0.50005 0.50005 0 0 0 13.5 9 L 12 9 C 11.641933 9 11.313855 8.810193 11.134766 8.5 C 10.955732 8.1899043 10.955732 7.8100957 11.134766 7.5 C 11.313855 7.1898072 11.641933 7.0000001 12 7 L 13.5 7 A 0.50005 0.50005 0 0 0 14 6.5 L 14 3.5 C 14 2.6774952 13.322505 2 12.5 2 L 10 2 C 10 1.2862705 9.6180103 0.62438637 9 0.26757812 C 8.6911419 0.089258883 8.345466 3.7007434e-17 8 0 z M 8 1 C 8.172483 1 8.3447563 1.0451357 8.5 1.1347656 C 8.8101933 1.3138558 9 1.6419327 9 2 L 9 2.5 A 0.50005 0.50005 0 0 0 9.5 3 L 12.5 3 C 12.782065 3 13 3.2179353 13 3.5 L 13 6 L 12 6 C 11.286271 6.0000001 10.624386 6.3819898 10.267578 7 C 9.9107137 7.6181079 9.9107137 8.3818921 10.267578 9 C 10.624386 9.6180106 11.286271 10 12 10 L 13 10 L 13 12.5 C 13 12.782065 12.782065 13 12.5 13 L 9.5 13 A 0.50005 0.50005 0 0 0 9 13.5 L 9 14 C 9 14.358067 8.810193 14.686145 8.5 14.865234 C 8.1899043 15.044268 7.8100957 15.044268 7.5 14.865234 C 7.1898071 14.686145 7 14.358067 7 14 L 7 13.5 A 0.50005 0.50005 0 0 0 6.5 13 L 3.5 13 C 3.2179353 13 3 12.782065 3 12.5 L 3 9.5 A 0.50005 0.50005 0 0 0 2.5 9 L 2 9 C 1.6419328 9 1.3138556 8.8101931 1.1347656 8.5 C 0.95573191 8.1899043 0.95573178 7.8100961 1.1347656 7.5 C 1.3138556 7.1898069 1.6419328 7 2 7 L 2.5 7 A 0.50005 0.50005 0 0 0 3 6.5 L 3 3.5 C 3 3.2179353 3.2179353 3 3.5 3 L 6.5 3 A 0.50005 0.50005 0 0 0 7 2.5 L 7 2 C 7 1.6419328 7.1898068 1.3138558 7.5 1.1347656 C 7.6552437 1.0451357 7.827517 1 8 1 z " />
</svg>

<svg xmlns="http://www.w3.org/2000/svg" width="16" height="16">
  <path style="fill:context-fill;fill-opacity:context-fill-opacity" d="M8 0a2 2 0 0 0-2 2H3.5C2.677 2 2 2.677 2 3.5V6a2.002 2.002 0 0 0 0 4v2.5c0 .823.677 1.5 1.5 1.5H6a2.002 2.002 0 0 0 4 0h2.5c.823 0 1.5-.677 1.5-1.5v-3a.5.5 0 0 0-.5-.5H12a.998.998 0 1 1 0-2h1.5a.5.5 0 0 0 .5-.5v-3c0-.823-.677-1.5-1.5-1.5H10a2.003 2.003 0 0 0-2-2zm0 1a.999.999 0 0 1 1 1v.5a.5.5 0 0 0 .5.5h3c.282 0 .5.218.5.5V6h-1a2.002 2.002 0 0 0 0 4h1v2.5c0 .282-.218.5-.5.5h-3a.5.5 0 0 0-.5.5v.5a.998.998 0 1 1-2 0v-.5a.5.5 0 0 0-.5-.5h-3a.493.493 0 0 1-.5-.5v-3a.5.5 0 0 0-.5-.5H2a.998.998 0 1 1 0-2h.5a.5.5 0 0 0 .5-.5v-3c0-.282.218-.5.5-.5h3a.5.5 0 0 0 .5-.5V2a.997.997 0 0 1 1-1z"/>
</svg>
